Mirae1/images/menu.svg

<svg width="1920" height="108" viewBox="0 0 1920 108" fill="none" xmlns="http://www.w3.org/2000/svg">
<ellipse cx="510.5" cy="61.723" rx="200" ry="1.3253" fill="white" fill-opacity="0.4"/>
<ellipse cx="460.5" cy="72.3736" rx="250" ry="1.3253" fill="white" fill-opacity="0.4"/>
<ellipse cx="410.5" cy="83.0243" rx="300" ry="1.3253" fill="white" fill-opacity="0.4"/>
<ellipse cx="390.5" cy="93.6749" rx="320" ry="1.3253" fill="white" fill-opacity="0.4"/>
<path d="M859 25.1337C859 32.8176 864.716 40.523 874.483 40.523C884.25 40.523 883.842 37.5825 883.842 37.5825L882.08 33.4293C882.08 33.4293 865.135 39.042 865.135 25.5415C865.135 12.041 875.633 13.1893 880.414 14.2303L882.488 10.1845C882.488 10.1845 860.139 3.123 859 25.1337Z" fill="white"/>
<path d="M916.892 9.11157V39.8257H923.135V15.2823L935.362 39.8257H944.033V9.11157H938.145V33.5799L925.252 9.11157H916.892Z" fill="white"/>
<path d="M974.119 9.11157H950.427V14.4023H958.431V39.8257H964.932V14.4023H971.379L974.119 9.11157Z" fill="white"/>
<path d="M985.572 26.733H996.511V21.2169H987.399L985.572 23.4277V14.3272H995.909L998.112 9.18669H985.572V9.11157H979.276V9.18669V14.3272V34.6852V36.6706V39.8257H995.909L998.112 34.6852H985.572V26.733Z" fill="white"/>
<path d="M896.832 26.733H907.77V21.2169H898.659L896.832 23.4277V14.3272H907.168L909.371 9.18669H896.832V9.11157H890.536V9.18669V14.3272V34.6852V36.6706V39.8257H907.168L909.371 34.6852H896.832V26.733Z" fill="white"/>
<path d="M1024.13 34.685L1019.05 26.5826C1022.14 25.7026 1025.78 23.5026 1025.78 18.0723C1025.78 8.63914 1016.7 9.11133 1016.7 9.11133H1005.53V39.8255H1011.82V27.1728H1013.04L1020.84 39.8255H1026.45L1029.07 34.685H1024.12H1024.13ZM1011.82 22.8908V14.3269H1016.09C1016.09 14.3269 1020.6 14.1982 1020.6 18.1367C1020.6 22.0752 1017.06 22.8801 1016.22 22.8801H1011.83L1011.82 22.8908Z" fill="white"/>
<path d="M1037.02 8.2558L1044.63 1.44116H1047.19V13.5573C1047.19 13.5573 1045.1 13.7934 1045.1 17.3778C1045.1 20.9621 1047.19 21.1017 1047.19 21.1017V33.7543H1037.58V32.209L1043.62 29.6548V7.3436L1041.54 8.2558H1037.02Z" fill="white"/>
<path d="M1048.33 1.44116H1051.45V29.6548L1056.81 32.209V33.7543H1048.33V20.4685C1048.33 20.4685 1046.22 19.9963 1046.22 17.2919C1046.22 14.5875 1047.2 14.3621 1048.33 13.8577V1.44116Z" fill="white"/>
<path d="M771.18 63.6V86.92H754.7V63.6H771.18ZM757.9 66.24V84.32H767.98V66.24H757.9ZM781.98 60.08V96.04H778.7V60.08H781.98ZM793.377 84.64C795.43 84.6133 797.43 84.5467 799.377 84.44C801.35 84.3067 803.484 84.04 805.777 83.64L806.017 86.36C803.537 86.7867 801.23 87.0667 799.097 87.2C796.964 87.3067 794.79 87.36 792.577 87.36H790.217V73.92H800.377V66.68H790.097V64H803.577V76.6H793.377V84.64ZM819.497 60.08V95.92H816.337V76.92H811.257V94.12H808.177V60.88H811.257V74.24H816.337V60.08H819.497ZM833.534 85.04C834.947 85.04 836.067 84.2 836.894 82.52C837.747 80.8133 838.174 78.48 838.174 75.52C838.174 74.08 838.054 72.7867 837.814 71.64C837.6 70.4667 837.294 69.48 836.894 68.68C836.494 67.8533 836 67.2267 835.414 66.8C834.854 66.3467 834.227 66.12 833.534 66.12C832.094 66.12 830.947 66.9733 830.094 68.68C829.267 70.36 828.854 72.64 828.854 75.52C828.854 78.48 829.267 80.8133 830.094 82.52C830.947 84.2 832.094 85.04 833.534 85.04ZM845.654 60.88H848.774V94.2H845.654V76.72H841.134C841.054 78.48 840.814 80.0667 840.414 81.48C840.04 82.8667 839.52 84.0533 838.854 85.04C838.214 86.0267 837.44 86.7867 836.534 87.32C835.627 87.8267 834.627 88.08 833.534 88.08C832.36 88.08 831.294 87.7867 830.334 87.2C829.4 86.6133 828.6 85.7867 827.934 84.72C827.267 83.6267 826.747 82.3067 826.374 80.76C826.027 79.2133 825.854 77.4667 825.854 75.52C825.854 73.6 826.027 71.88 826.374 70.36C826.747 68.8133 827.267 67.5067 827.934 66.44C828.6 65.3467 829.4 64.52 830.334 63.96C831.294 63.3733 832.36 63.08 833.534 63.08C834.6 63.08 835.574 63.3333 836.454 63.84C837.36 64.3467 838.134 65.08 838.774 66.04C839.44 66.9733 839.974 68.12 840.374 69.48C840.774 70.84 841.027 72.36 841.134 74.04H845.654V60.88ZM855.894 60.08V95.96H852.774V60.08H855.894ZM892.091 84.52H888.931V60.08H892.091V84.52ZM881.931 70.96H876.331V68.28H881.931V60.88H885.011V81.2H881.931V70.96ZM877.691 79.6C876.037 78.88 874.624 77.8933 873.451 76.64C872.304 75.36 871.424 73.9333 870.811 72.36C870.171 74.04 869.237 75.5867 868.011 77C866.811 78.4133 865.344 79.5067 863.611 80.28L861.851 77.76C862.997 77.2533 864.024 76.6 864.931 75.8C865.864 74.9733 866.651 74.08 867.291 73.12C867.931 72.1333 868.411 71.1067 868.731 70.04C869.077 68.9733 869.251 67.9333 869.251 66.92V62.24H872.411V66.92C872.411 67.96 872.571 68.9867 872.891 70C873.211 70.9867 873.664 71.9333 874.251 72.84C874.864 73.7467 875.611 74.5733 876.491 75.32C877.371 76.04 878.371 76.64 879.491 77.12L877.691 79.6ZM881.931 83.92C881.931 85.0667 882.264 86.16 882.931 87.2C883.624 88.2133 884.531 89.1333 885.651 89.96C886.771 90.7867 888.064 91.48 889.531 92.04C890.997 92.6 892.531 93 894.131 93.24L892.891 95.8C891.531 95.5867 890.211 95.2533 888.931 94.8C887.651 94.3733 886.451 93.84 885.331 93.2C884.237 92.56 883.251 91.8267 882.371 91C881.517 90.1733 880.824 89.2667 880.291 88.28C879.731 89.2667 879.011 90.1733 878.131 91C877.277 91.8267 876.291 92.56 875.171 93.2C874.077 93.84 872.891 94.3733 871.611 94.8C870.357 95.2533 869.051 95.5867 867.691 95.8L866.451 93.24C868.051 93 869.584 92.6 871.051 92.04C872.517 91.48 873.811 90.7867 874.931 89.96C876.051 89.1333 876.944 88.2133 877.611 87.2C878.277 86.16 878.611 85.0667 878.611 83.92V82.8H881.931V83.92ZM928.487 87H925.327V60.08H928.487V87ZM918.327 71.8H912.727V69.12H918.327V60.8H921.407V85.96H918.327V71.8ZM914.047 80.92C912.421 80.1467 911.034 79.12 909.887 77.84C908.741 76.56 907.861 75.12 907.247 73.52C906.607 75.28 905.674 76.8933 904.447 78.36C903.247 79.8267 901.807 80.9867 900.127 81.84L898.287 79.32C899.434 78.76 900.461 78.0533 901.367 77.2C902.301 76.32 903.074 75.3733 903.687 74.36C904.327 73.3467 904.807 72.28 905.127 71.16C905.474 70.04 905.647 68.9467 905.647 67.88V62.6H908.807V67.88C908.807 68.9467 908.954 70 909.247 71.04C909.567 72.08 910.021 73.0667 910.607 74C911.221 74.9067 911.967 75.7467 912.847 76.52C913.727 77.2667 914.727 77.8933 915.847 78.4L914.047 80.92ZM929.527 92.48V95.16H905.087V83.72H908.367V92.48H929.527ZM939.524 84.68C941.151 84.68 942.644 84.6667 944.004 84.64C945.364 84.5867 946.658 84.52 947.884 84.44C949.111 84.36 950.298 84.2533 951.444 84.12C952.618 83.96 953.818 83.7733 955.044 83.56L955.404 86.24C954.098 86.48 952.831 86.68 951.604 86.84C950.378 86.9733 949.111 87.08 947.804 87.16C946.524 87.24 945.164 87.2933 943.724 87.32C942.284 87.3467 940.711 87.36 939.004 87.36H936.244V63.32H952.844V66.04H939.524V73.44H951.284V76.08H939.524V84.68ZM964.164 60.04V96H960.884V76.32H953.484V73.6H960.884V60.04H964.164ZM997.081 81.28V60.08H1000.36V87.4H997.081V83.72H989.801V81.28H997.081ZM982.481 63.96C980.775 63.96 979.388 64.3067 978.321 65C977.281 65.6933 976.761 66.6133 976.761 67.76C976.761 68.9333 977.281 69.8667 978.321 70.56C979.388 71.2533 980.775 71.6 982.481 71.6C984.188 71.6 985.561 71.2533 986.601 70.56C987.668 69.8667 988.201 68.9333 988.201 67.76C988.201 66.6133 987.668 65.6933 986.601 65C985.561 64.3067 984.188 63.96 982.481 63.96ZM982.481 74.04C981.175 74.04 979.975 73.8933 978.881 73.6C977.815 73.3067 976.881 72.8933 976.081 72.36C975.308 71.8 974.708 71.1333 974.281 70.36C973.855 69.5867 973.641 68.72 973.641 67.76C973.641 66.8267 973.855 65.9733 974.281 65.2C974.708 64.4267 975.308 63.7733 976.081 63.24C976.881 62.68 977.815 62.2533 978.881 61.96C979.975 61.6667 981.175 61.52 982.481 61.52C983.788 61.52 984.975 61.6667 986.041 61.96C987.135 62.2533 988.068 62.68 988.841 63.24C989.641 63.7733 990.255 64.4267 990.681 65.2C991.108 65.9733 991.321 66.8267 991.321 67.76C991.321 68.72 991.108 69.5867 990.681 70.36C990.255 71.1333 989.641 71.8 988.841 72.36C988.068 72.8933 987.135 73.3067 986.041 73.6C984.975 73.8933 983.788 74.04 982.481 74.04ZM981.201 79.2C979.415 79.28 977.681 79.3333 976.001 79.36C974.321 79.3867 972.735 79.4 971.241 79.4L970.801 76.68C972.455 76.68 974.228 76.68 976.121 76.68C978.041 76.6533 980.001 76.6 982.001 76.52C984.001 76.44 986.015 76.3333 988.041 76.2C990.068 76.0667 992.028 75.88 993.921 75.64L994.201 78C992.601 78.24 990.988 78.4533 989.361 78.64C987.735 78.8 986.108 78.9333 984.481 79.04V86.12H981.201V79.2ZM1001.28 92.48V95.16H975.921V84.72H979.201V92.48H1001.28Z" fill="white"/>
<path d="M1030.02 80.8L1029.14 77.56C1028.69 76.0133 1028.25 74.4133 1027.82 72.76C1027.42 71.1067 1026.99 69.48 1026.54 67.88H1026.38C1026.01 69.5067 1025.61 71.1467 1025.18 72.8C1024.75 74.4267 1024.31 76.0133 1023.86 77.56L1022.98 80.8H1030.02ZM1031.3 85.4H1021.7L1019.62 93H1013.62L1023.1 63.4H1030.06L1039.58 93H1033.38L1031.3 85.4ZM1037.9 63.4H1044.1L1048.02 77.8C1048.48 79.4533 1048.88 81.04 1049.22 82.56C1049.6 84.08 1050.02 85.68 1050.5 87.36H1050.7C1051.16 85.68 1051.57 84.08 1051.94 82.56C1052.34 81.04 1052.77 79.4533 1053.22 77.8L1057.06 63.4H1063.06L1053.98 93H1046.94L1037.9 63.4ZM1065.91 63.4H1084.07V68.32H1071.83V75.16H1082.23V80.12H1071.83V88.04H1084.51V93H1065.91V63.4ZM1089.96 63.4H1096L1104.6 79.16L1107.56 85.56H1107.76C1107.6 84.0133 1107.43 82.32 1107.24 80.48C1107.08 78.64 1107 76.88 1107 75.2V63.4H1112.6V93H1106.6L1098.04 77.16L1095.04 70.8H1094.84C1094.97 72.4 1095.12 74.0933 1095.28 75.88C1095.47 77.6667 1095.56 79.4133 1095.56 81.12V93H1089.96V63.4ZM1130.72 93.56C1128.91 93.56 1127.29 93.3067 1125.88 92.8C1124.47 92.2667 1123.25 91.44 1122.24 90.32C1121.25 89.2 1120.49 87.76 1119.96 86C1119.45 84.24 1119.2 82.1333 1119.2 79.68V63.4H1125.12V80.2C1125.12 81.7467 1125.24 83.0533 1125.48 84.12C1125.75 85.16 1126.12 86 1126.6 86.64C1127.08 87.28 1127.67 87.7467 1128.36 88.04C1129.05 88.3067 1129.84 88.44 1130.72 88.44C1131.6 88.44 1132.39 88.3067 1133.08 88.04C1133.8 87.7467 1134.41 87.28 1134.92 86.64C1135.43 86 1135.81 85.16 1136.08 84.12C1136.35 83.0533 1136.48 81.7467 1136.48 80.2V63.4H1142.16V79.68C1142.16 82.1333 1141.91 84.24 1141.4 86C1140.89 87.76 1140.15 89.2 1139.16 90.32C1138.17 91.44 1136.97 92.2667 1135.56 92.8C1134.15 93.3067 1132.53 93.56 1130.72 93.56ZM1148.72 63.4H1166.88V68.32H1154.64V75.16H1165.04V80.12H1154.64V88.04H1167.32V93H1148.72V63.4Z" fill="#F58220"/>
<ellipse cx="1409.5" cy="61.723" rx="200" ry="1.3253" fill="white" fill-opacity="0.4"/>
<ellipse cx="1459.5" cy="72.3736" rx="250" ry="1.3253" fill="white" fill-opacity="0.4"/>
<ellipse cx="1509.5" cy="83.0243" rx="300" ry="1.3253" fill="white" fill-opacity="0.4"/>
<ellipse cx="1529.5" cy="93.6749" rx="320" ry="1.3253" fill="white" fill-opacity="0.4"/>
</svg>

<svg width="1920" height="108" fill="none" xmlns="http://www.w3.org/2000/svg"><ellipse cx="510.5" cy="61.723" rx="200" ry="1.325" fill="#fff" fill-opacity=".4"/><ellipse cx="460.5" cy="72.374" rx="250" ry="1.325" fill="#fff" fill-opacity=".4"/><ellipse cx="410.5" cy="83.024" rx="300" ry="1.325" fill="#fff" fill-opacity=".4"/><ellipse cx="390.5" cy="93.675" rx="320" ry="1.325" fill="#fff" fill-opacity=".4"/><path d="M859 25.134c0 7.684 5.716 15.389 15.483 15.389s9.359-2.94 9.359-2.94l-1.762-4.154s-16.945 5.613-16.945-7.888c0-13.5 10.498-12.352 15.279-11.31l2.074-4.046S860.139 3.122 859 25.133zM916.892 9.112v30.714h6.243V15.282l12.227 24.544h8.671V9.112h-5.888V33.58L925.252 9.112h-8.36zM974.119 9.112h-23.692v5.29h8.004v25.424h6.501V14.402h6.447l2.74-5.29zM985.572 26.733h10.939v-5.516h-9.112l-1.827 2.21v-9.1h10.337l2.203-5.14h-12.54v-.075h-6.296V39.826h16.633l2.203-5.14h-12.54v-7.953zM896.832 26.733h10.938v-5.516h-9.111l-1.827 2.21v-9.1h10.336l2.203-5.14h-12.539v-.075h-6.296V39.826h16.632l2.203-5.14h-12.539v-7.953zM1024.13 34.685l-5.08-8.102c3.09-.88 6.73-3.08 6.73-8.51 0-9.434-9.08-8.962-9.08-8.962h-11.17v30.714h6.29V27.173h1.22l7.8 12.652h5.61l2.62-5.14h-4.95.01zm-12.31-11.794v-8.564h4.27s4.51-.129 4.51 3.81c0 3.938-3.54 4.743-4.38 4.743h-4.39l-.01.01zM1037.02 8.256l7.61-6.815h2.56v12.116s-2.09.236-2.09 3.82c0 3.585 2.09 3.725 2.09 3.725v12.652h-9.61V32.21l6.04-2.554V7.344l-2.08.912h-4.52z" fill="#fff"/><path d="M1048.33 1.441h3.12v28.214l5.36 2.554v1.545h-8.48V20.47s-2.11-.473-2.11-3.177c0-2.705.98-2.93 2.11-3.434V1.44zM771.18 63.6v23.32H754.7V63.6h16.48zm-13.28 2.64v18.08h10.08V66.24H757.9zm24.08-6.16v35.96h-3.28V60.08h3.28zm11.397 24.56c2.053-.027 4.053-.093 6-.2 1.973-.133 4.107-.4 6.4-.8l.24 2.72c-2.48.427-4.787.707-6.92.84-2.133.107-4.307.16-6.52.16h-2.36V73.92h10.16v-7.24h-10.28V64h13.48v12.6h-10.2v8.04zm26.12-24.56v35.84h-3.16v-19h-5.08v17.2h-3.08V60.88h3.08v13.36h5.08V60.08h3.16zm14.037 24.96c1.413 0 2.533-.84 3.36-2.52.853-1.707 1.28-4.04 1.28-7 0-1.44-.12-2.733-.36-3.88-.214-1.173-.52-2.16-.92-2.96-.4-.827-.894-1.453-1.48-1.88a2.914 2.914 0 0 0-1.88-.68c-1.44 0-2.587.853-3.44 2.56-.827 1.68-1.24 3.96-1.24 6.84 0 2.96.413 5.293 1.24 7 .853 1.68 2 2.52 3.44 2.52zm12.12-24.16h3.12V94.2h-3.12V76.72h-4.52c-.08 1.76-.32 3.347-.72 4.76-.374 1.387-.894 2.573-1.56 3.56-.64.987-1.414 1.747-2.32 2.28-.907.507-1.907.76-3 .76-1.174 0-2.24-.293-3.2-.88-.934-.587-1.734-1.413-2.4-2.48-.667-1.093-1.187-2.413-1.56-3.96-.347-1.547-.52-3.293-.52-5.24 0-1.92.173-3.64.52-5.16.373-1.547.893-2.853 1.56-3.92.666-1.093 1.466-1.92 2.4-2.48.96-.587 2.026-.88 3.2-.88 1.066 0 2.04.253 2.92.76.906.507 1.68 1.24 2.32 2.2.666.933 1.2 2.08 1.6 3.44.4 1.36.653 2.88.76 4.56h4.52V60.88zm10.24-.8v35.88h-3.12V60.08h3.12zm36.197 24.44h-3.16V60.08h3.16v24.44zm-10.16-13.56h-5.6v-2.68h5.6v-7.4h3.08V81.2h-3.08V70.96zm-4.24 8.64c-1.654-.72-3.067-1.707-4.24-2.96a13.967 13.967 0 0 1-2.64-4.28 15.426 15.426 0 0 1-2.8 4.64 12.227 12.227 0 0 1-4.4 3.28l-1.76-2.52a11.893 11.893 0 0 0 3.08-1.96c.933-.827 1.72-1.72 2.36-2.68a11.96 11.96 0 0 0 1.44-3.08c.346-1.067.52-2.107.52-3.12v-4.68h3.16v4.68c0 1.04.16 2.067.48 3.08.32.987.773 1.933 1.36 2.84.613.907 1.36 1.733 2.24 2.48.88.72 1.88 1.32 3 1.8l-1.8 2.48zm4.24 4.32c0 1.147.333 2.24 1 3.28.693 1.013 1.6 1.933 2.72 2.76 1.12.827 2.413 1.52 3.88 2.08 1.466.56 3 .96 4.6 1.2l-1.24 2.56a22.088 22.088 0 0 1-3.96-1c-1.28-.427-2.48-.96-3.6-1.6a16.388 16.388 0 0 1-2.96-2.2 11.16 11.16 0 0 1-2.08-2.72 11.55 11.55 0 0 1-2.16 2.72c-.854.827-1.84 1.56-2.96 2.2a18.797 18.797 0 0 1-3.56 1.6 21.13 21.13 0 0 1-3.92 1l-1.24-2.56c1.6-.24 3.133-.64 4.6-1.2 1.466-.56 2.76-1.253 3.88-2.08 1.12-.827 2.013-1.747 2.68-2.76.666-1.04 1-2.133 1-3.28V82.8h3.32v1.12zM928.487 87h-3.16V60.08h3.16V87zm-10.16-15.2h-5.6v-2.68h5.6V60.8h3.08v25.16h-3.08V71.8zm-4.28 9.12c-1.626-.773-3.013-1.8-4.16-3.08a13.88 13.88 0 0 1-2.64-4.32 16.034 16.034 0 0 1-2.8 4.84 13.317 13.317 0 0 1-4.32 3.48l-1.84-2.52a12.391 12.391 0 0 0 3.08-2.12 13.521 13.521 0 0 0 2.32-2.84c.64-1.013 1.12-2.08 1.44-3.2.347-1.12.52-2.213.52-3.28V62.6h3.16v5.28c0 1.067.147 2.12.44 3.16a12.41 12.41 0 0 0 1.36 2.96c.614.907 1.36 1.747 2.24 2.52.88.747 1.88 1.373 3 1.88l-1.8 2.52zm15.48 11.56v2.68h-24.44V83.72h3.28v8.76h21.16zm9.997-7.8c1.627 0 3.12-.013 4.48-.04 1.36-.053 2.654-.12 3.88-.2a70.574 70.574 0 0 0 3.56-.32 99.034 99.034 0 0 0 3.6-.56l.36 2.68c-1.306.24-2.573.44-3.8.6-1.226.133-2.493.24-3.8.32-1.28.08-2.64.133-4.08.16-1.44.027-3.013.04-4.72.04h-2.76V63.32h16.6v2.72h-13.32v7.4h11.76v2.64h-11.76v8.6zm24.64-24.64V96h-3.28V76.32h-7.4V73.6h7.4V60.04h3.28zm32.917 21.24v-21.2h3.279V87.4h-3.279v-3.68h-7.28v-2.44h7.28zm-14.6-17.32c-1.706 0-3.093.347-4.16 1.04-1.04.693-1.56 1.613-1.56 2.76 0 1.173.52 2.107 1.56 2.8 1.067.693 2.454 1.04 4.16 1.04 1.707 0 3.08-.347 4.12-1.04 1.067-.693 1.6-1.627 1.6-2.8 0-1.147-.533-2.067-1.6-2.76-1.04-.693-2.413-1.04-4.12-1.04zm0 10.08c-1.306 0-2.506-.147-3.6-.44-1.066-.293-2-.707-2.8-1.24-.773-.56-1.373-1.227-1.8-2-.426-.773-.64-1.64-.64-2.6 0-.933.214-1.787.64-2.56a5.735 5.735 0 0 1 1.8-1.96c.8-.56 1.734-.987 2.8-1.28 1.094-.293 2.294-.44 3.6-.44 1.307 0 2.494.147 3.56.44 1.094.293 2.027.72 2.8 1.28.8.533 1.414 1.187 1.84 1.96.427.773.64 1.627.64 2.56 0 .96-.213 1.827-.64 2.6-.426.773-1.04 1.44-1.84 2-.773.533-1.706.947-2.8 1.24-1.066.293-2.253.44-3.56.44zm-1.28 5.16c-1.786.08-3.52.133-5.2.16-1.68.027-3.266.04-4.76.04l-.44-2.72h5.32a235.199 235.199 0 0 0 11.92-.48 97.786 97.786 0 0 0 5.88-.56l.28 2.36c-1.6.24-3.213.453-4.84.64-1.626.16-3.253.293-4.88.4v7.08h-3.28V79.2zm20.079 13.28v2.68h-25.359V84.72h3.28v7.76h22.079z" fill="#fff"/><path d="m1030.02 80.8-.88-3.24a173.7 173.7 0 0 1-1.32-4.8 137.1 137.1 0 0 0-1.28-4.88h-.16c-.37 1.627-.77 3.267-1.2 4.92-.43 1.627-.87 3.213-1.32 4.76l-.88 3.24h7.04zm1.28 4.6h-9.6l-2.08 7.6h-6l9.48-29.6h6.96l9.52 29.6h-6.2l-2.08-7.6zm6.6-22h6.2l3.92 14.4c.46 1.653.86 3.24 1.2 4.76.38 1.52.8 3.12 1.28 4.8h.2c.46-1.68.87-3.28 1.24-4.8.4-1.52.83-3.107 1.28-4.76l3.84-14.4h6l-9.08 29.6h-7.04l-9.04-29.6zm28.01 0h18.16v4.92h-12.24v6.84h10.4v4.96h-10.4v7.92h12.68V93h-18.6V63.4zm24.05 0h6.04l8.6 15.76 2.96 6.4h.2c-.16-1.547-.33-3.24-.52-5.08-.16-1.84-.24-3.6-.24-5.28V63.4h5.6V93h-6l-8.56-15.84-3-6.36h-.2c.13 1.6.28 3.293.44 5.08.19 1.787.28 3.533.28 5.24V93h-5.6V63.4zm40.76 30.16c-1.81 0-3.43-.253-4.84-.76a9.24 9.24 0 0 1-3.64-2.48c-.99-1.12-1.75-2.56-2.28-4.32-.51-1.76-.76-3.867-.76-6.32V63.4h5.92v16.8c0 1.547.12 2.853.36 3.92.27 1.04.64 1.88 1.12 2.52.48.64 1.07 1.107 1.76 1.4.69.267 1.48.4 2.36.4.88 0 1.67-.133 2.36-.4.72-.293 1.33-.76 1.84-1.4.51-.64.89-1.48 1.16-2.52.27-1.067.4-2.373.4-3.92V63.4h5.68v16.28c0 2.453-.25 4.56-.76 6.32-.51 1.76-1.25 3.2-2.24 4.32a8.965 8.965 0 0 1-3.6 2.48c-1.41.507-3.03.76-4.84.76zm18-30.16h18.16v4.92h-12.24v6.84h10.4v4.96h-10.4v7.92h12.68V93h-18.6V63.4z" fill="#F58220"/><ellipse cx="1409.5" cy="61.723" rx="200" ry="1.325" fill="#fff" fill-opacity=".4"/><ellipse cx="1459.5" cy="72.374" rx="250" ry="1.325" fill="#fff" fill-opacity=".4"/><ellipse cx="1509.5" cy="83.024" rx="300" ry="1.325" fill="#fff" fill-opacity=".4"/><ellipse cx="1529.5" cy="93.675" rx="320" ry="1.325" fill="#fff" fill-opacity=".4"/></svg>
